!!!COM: Clementi, Muzio
!!!CDT: 1752/01/23/-1832/03/10/
!!!ODT: ~1800///
!!!OTL: Sonata No. 1 in C Major, Op. 36, Mvmt. 2
!!!OPS: Op. 36
!!!ONM: No. 1
!!!OMV: 2. Andante
**kern	**kern	**dynam
*staff2	*staff1	*staff1/2
*clefF4	*clefG2	*clefG2
*k[b-]	*k[b-]	*k[b-]
*F:	*F:	*F:
*M3/4	*M3/4	*M3/4
*MM100	*MM100	*MM100
=1-	=1-	=1-
12F\L	2cc\	.
12A\	.	.
12c\J	.	.
12F\L	.	.
12A\	.	.
12c\J	.	.
12F\L	4ff\	.
12A\	.	.
12c\J	.	.
=2	=2	=2
12F\L	2a/	.
12A\	.	.
12c\J	.	.
12F\L	.	.
12A\	.	.
12c\J	.	.
12F\L	4cc\	.
12A\	.	.
12c\J	.	.
=3	=3	=3
12C\L	2f/	.
12F\	.	.
12A\J	.	.
12C\L	.	.
12F\	.	.
12A\J	.	.
12C\L	4g/	.
12E\	.	.
12G\J	.	.
=4	=4	=4
12F\L	4a/	.
12A\	.	.
12c\J	.	.
4r	12f/L	.
.	12a/	.
.	12cc/J	.
4r	12ff\L	.
.	12ff\	.
.	12ff\J	.
=5	=5	=5
12F\L	4dd\	.
12B-\	.	.
12d\J	.	.
4r	12f/L	.
.	12b-/	.
.	12dd/J	.
4r	12ff\L	.
.	12ff\	.
.	12ff\J	.
=6	=6	=6
12F\L	4cc\	.
12A\	.	.
12c\J	.	.
12F\L	12aa\L	.
12A\	12gg\	.
12c\J	12ff\J	.
12F\L	12ee\L	.
12A\	12dd\	.
12c\J	12cc\J	.
=7	=7	=7
4B-\	(12cc/L	.
.	12e/	.
.	12g/J)	.
4A\	(12cc/L	<
.	12f/	.
.	12a/J)	.
4F\	(12cc/L	.
.	12f/	.
.	12a/J)	.
=8	=8	=8
12C\L	8.cc'\L	.
12F\	.	.
12A\J	.	.
.	16a\Jk	.
12C\L	4g/	p
12E\	.	.
12G\J	.	.
12C\L	4r	.
12E\	.	.
12G\J	.	.
=9	=9	=9
2GG/	12dd\ 12ff\L	.
.	12dd\ 12ff\	.
.	12dd\ 12ff\J	<
.	12cc\ 12ee\L	.
.	12cc\ 12ee\	.
.	12cc\ 12ee\J	.
4F\	12bn\ 12dd\L	.
.	12b\ 12dd\	.
.	12b\ 12dd\J	.
=10	=10	=10
12E\L	4gg\	f
12G\	.	.
12c\J	.	.
2E\	12g/L	.
.	12a/	.
.	12bn/J	.
.	12cc\L	.
.	12dd\	.
.	12ee\J	.
=11	=11	=11
4F\	12a\L	.
.	12ff\	.
.	12dd\J	.
4G\	12e/ 12cc/L	.
.	12e/ 12cc/	.
.	12e/ 12cc/J	.
4GG/	12d/ 12bn/L	.
.	12d/ 12b/	.
.	12d/ 12b/J	.
=12	=12	=12
4CC/	(2f/ 2dd/	.
4GG/	.	.
4C/	4e/) 4cc/	.
=13	=13	=13
2.r	12cc\L	<
.	12cc\	.
.	12cc\J	.
.	12ee-\L	.
.	12dd\	.
.	12cc\J	.
.	12b-/L	p
.	12a/	.
.	12g/J	.
=14	=14	=14
4c\	12f#/L	.
.	12a/	.
.	12d/J	.
4B-\	12g/L	.
.	12b-/	.
.	12d/J	.
4F#\	12a/L	.
.	12cc/	.
.	12d/J	<
=15	=15	=15
4G\	12b-\L	.
.	12b-\	.
.	12b-\J	.
4r	12dd\L	.
.	12cc\	.
.	12b-\J	.
4r	12a/L	p
.	12g/	.
.	12f/J	.
=16	=16	=16
4B-\	(12en/L	.
.	12g/	.
.	12c/J)	.
4A\	(12f/L	.
.	12a/	.
.	12cc/J)	.
4Fn\	12a/ 12cc/L	.
.	12g/ 12b-/	.
.	12f/ 12a/J	.
=17	=17	=17
12C\L	(4f/ 4a/	.
12c\	.	.
12c\J	.	.
4c\	12e/) 12g/L	.
.	12a/ 12cc/	.
.	12a/ 12cc/J	.
4r	12a/ 12cc/L	.
.	12g/ 12b-/	.
.	12f/ 12a/J	.
=18	=18	=18
12C\L	4f/ 4a/	.
12c\	.	.
12c\J	.	.
12c\L	4e/ 4g/	.
12d\	.	.
12c\J	.	.
12B-\L	4r	.
12A\	.	.
12G\J	.	.
=19	=19	=19
12F\L	2cc\	.
12A\	.	.
12c\J	.	.
12F\L	.	.
12A\	.	.
12c\J	.	.
12F\L	4ff\	.
12A\	.	.
12c\J	.	.
=20	=20	=20
12F\L	2a/	.
12A\	.	.
12c\J	.	.
12F\L	.	.
12A\	.	.
12c\J	.	.
12F\L	4cc\	.
12A\	.	.
12c\J	.	.
=21	=21	=21
12F\L	2e-/	.
12A\	.	.
12c\J	.	.
12F\L	.	.
12A\	.	.
12c\J	.	.
12F\L	4e-/	.
12A\	.	.
12c\J	.	.
=22	=22	=22
2B-\	12d/L	>
.	12f/	.
.	12b-/J	.
.	12dd\L	p
.	12dd\	.
.	12dd\J	.
4r	4dd\	.
=23	=23	=23
2CC/	12g/ 12b-/L	.
.	12g/ 12b-/	.
.	12g/ 12b-/J	<
.	12f/ 12a/L	.
.	12f/ 12a/	.
.	12f/ 12a/J	.
4BB-/	12en/ 12g/L	.
.	12e/ 12g/	.
.	12e/ 12g/J	.
=24	=24	=24
12AA/L	(8.cc/L	f
12C/	.	.
12F/J	.	.
.	16f/Jk)	.
12AA/L	12ff\L	.
12C/	12ee\	.
12F/J	12dd\J	.
12AA/L	12cc\L	.
12C/	12b-\	.
12F/J	12a\J	.
=25	=25	=25
12BB-\L	12g\L	.
12D\	12b-\	.
12G\J	12dd\J	.
12C\L	4f/	.
12F\	.	.
12A\J	.	.
12C\L	4g/	.
12E\	.	.
12G\J	.	.
=26	=26	=26
12FF/L	2.f/	.
12AA/	.	.
12C/J	.	.
12F/L	.	.
12C/	.	.
12AA/J	.	.
4FF/	.	.
==	==	==
*-	*-	*-
!!!ENC: Craig Stuart Sapp
!!!END: 2004/11/26/
